X: 15170
T: Gilderoy
R: hornpipe
M: 4/4
K: Aminor
E2|A2 A>B c>Bcd|e2 dc d2 cd|e2 G2 cAGE|G4 z2c>B|
A>^GAB c>Bcd|e>def e2 ag|fedc B3 A|B4 z2||
e>f|g>^fga g2 =fe|fedc d2 c>d|e2 G2 c<AG>E|G4 z2c>B|
A>^GAB c>Bcd|e>def e2 ag|fedc B3 A|B4 z2||

